X:1
T:Indian Ate a Woodchuck
M:C|
L:1/8
S:Pappy Taylor
Z: Paul Tyler <ptyler@AMERITECH.NET> fiddle-l 2010-9-26
R:breakdown
K:A
   cd  | e2ef e2c2 | ecef e2ef | a2af e2c2 | ecef ecBc | A2AA A2 :|
|: zD- | E2EF E2C2 | ECEF A2AF | E2EF E2C2 | ECB,C A,2A,A, :|
